X:46
T: Rache im Zweikampf
N: Q2097B
O: Mitteleuropa, Frankreich, Franche - Comte
N: Franzoesische Fassung der Ballade. Duolen in der dritten Zeile
N: rhythmisch veraendert.
R: Ballade, Frau in Maennerkleidung, Soldat, Betrug, Rache
M: FREI6/8
L: 1/8
K: C
cBc | dcBABA | G3
cBc | dcBABA | G3-G2
AG2F | E3-E2cd2e | f3-f2e | d3c2
e | G2FE3 | ABAG2d | c6

@@@ Tune index: 1339
